X: 11802
T: Ellen O'Grady
R: slip jig
M: 9/8
K: Emixolydian
Add ABc BAG|Ad/c/d ABc B2 G|Add ABc BAG|cBc EFG A2:|
DE/F/G A2 B cBc|d2 A AGE G2 E|DEG A2 B cBc|dAA GFE D2:|
Bee Bcd cBA|Bee BB/c/d c2 A|Bee Bcd cBA|dcd FF/G/A B2:|
EFA B2 c dcd|BAF AGF G2 F|EFA B2 c dcd|1 BG/A/B AGF E2:|

